StripePaymentSheet/StripePaymentSheet/Resources/StripePaymentSheet.xcassets/afterpay_mark.imageset/afterpay_mark.svg

<svg fill="none" height="16" viewBox="0 0 83 16" width="83" xmlns="http://www.w3.org/2000/svg" xmlns:xlink="http://www.w3.org/1999/xlink"><clipPath id="a"><path d="m0 0h82.9333v16h-82.9333z"/></clipPath><g clip-path="url(#a)" fill="#100f0d"><path d="m81.6701 3.22916-2.4947-1.43541-2.5307-1.455669c-1.6768-.964849-3.7672.249139-3.7672 2.187959v.32673c0 .17878.0952.34389.2497.43284l1.1737.67533c.3263.18739.7319-.04835.7319-.42481v-.77391c0-.38312.4129-.62299.745-.43234l2.312 1.33045 2.3055 1.3264c.3328.19167.3328.6733 0 .86482l-2.3055 1.32647-2.312 1.33045c-.3321.19065-.745-.04922-.745-.43241v-.38442c0-1.93882-2.0904-3.15281-3.7674-2.18796l-2.5302 1.45574-2.4948 1.43534c-1.6849.9694-1.6849 3.40644 0 4.37594l2.4948 1.4353 2.5302 1.4557c1.677.9649 3.7674-.2492 3.7674-2.1879v-.3276c0-.1787-.0952-.3438-.2497-.4329l-1.1737-.6753c-.3263-.1874-.7319.0484-.7319.4249v.7746c0 .3832-.4129.6231-.7446.4324l-2.3125-1.3305-2.3056-1.3264c-.3329-.1916-.3329-.6732 0-.8648l2.3056-1.32646 2.3125-1.33045c.3317-.19066.7446.04922.7446.4324v.38442c0 1.93879 2.0904 3.15279 3.7672 2.18799l2.5307-1.45571 2.4947-1.43539c1.6847-.96934 1.6847-3.40651 0-4.37584z"/><path d="m65.2867 3.70823-5.8518 12.11047h-2.428l2.1863-4.5255-3.4375-7.58497h2.4906l2.2085 5.07939 2.4128-5.07939z"/><path d="m6.84369 12.3081v-1.1179c-.63473.774-1.57813 1.2556-2.70999 1.2556-2.35002 0-4.1337-1.892-4.1337-4.43759 0-2.52823 1.85237-4.45467 4.18504-4.45467 1.09772 0 2.02392.48178 2.65865 1.23846v-1.08363h2.10969v8.59973zm-.0172-4.29989c0-1.4446-1.04623-2.45946-2.33267-2.45946s-2.33269 1.03195-2.33269 2.45946c0 1.41042 1.04625 2.45969 2.33269 2.45969s2.33267-1.0148 2.33267-2.45969z"/><path d="m19.2013 10.3989c-.7377 0-.9433-.2751-.9433-.99752v-3.81828h1.3548v-1.87476h-1.3548v-2.0982h-2.1613v2.0982h-2.7841v-.85577c0-.72237.2743-.99778 1.0291-.99778h.4747v-1.66833h-1.0408c-1.7838 0-2.6243.584918-2.6243 2.37362v1.14826h-1.20074v1.87476h1.20074v6.725h2.1613v-6.725h2.7841v4.21387c0 1.75443.6689 2.51113 2.4184 2.51113h1.1149v-1.9092z"/><path d="m22.6488 8.57597c.1544 1.27263 1.0634 1.99503 2.2127 1.99503.909 0 1.6123-.4301 2.0239-1.11799h2.2126c-.5144 1.82329-2.144 2.99279-4.288 2.99279-2.5899 0-4.4081-1.8232-4.4081-4.42022 0-2.5972 1.9211-4.47211 4.4596-4.47211 2.5557 0 4.4082 1.89199 4.4082 4.47211 0 .18914-.0173.37841-.0516.55039zm4.3052-1.34174c-.1543-1.11786-1.0635-1.78877-2.1269-1.78877-1.0633 0-1.9382.65361-2.1611 1.78877z"/><path d="m36.2219 15.8187v-12.11033h2.1098v1.11787c.6346-.79113 1.578-1.27276 2.71-1.27276 2.3156 0 4.1337 1.90921 4.1337 4.43758 0 2.52824-1.8524 4.45474-4.1851 4.45474-1.0806 0-1.9725-.4301-2.59-1.1524v4.5253zm6.7923-7.81049c0-1.3932-1.0464-2.4596-2.3326-2.4596-1.2865 0-2.3328 1.03209-2.3328 2.4596 0 1.41035 1.0463 2.45959 2.3328 2.45959 1.2862 0 2.3326-1.06637 2.3326-2.45959z"/><path d="m52.7947 12.3081v-1.1179c-.6347.774-1.5781 1.2556-2.7101 1.2556-2.3499 0-4.1337-1.892-4.1337-4.43759 0-2.52823 1.8524-4.45467 4.1851-4.45467 1.0977 0 2.024.48178 2.6587 1.23846v-1.08363h2.1097v8.59973zm-.0173-4.29989c0-1.4446-1.0461-2.45946-2.3326-2.45946-1.2863 0-2.3327 1.03195-2.3327 2.45946 0 1.41042 1.0464 2.45969 2.3327 2.45969 1.2865 0 2.3326-1.0148 2.3326-2.45969z"/><path d="m32.4199 4.55112s.5368-.99764 1.8525-.99764c.5624 0 .9264.1942.9264.1942v2.19353s-.7938-.49169-1.5226-.39246c-.7287.09902-1.1899.77-1.1877 1.66819v5.09106h-2.1782v-8.59977h2.1096z"/></g></svg>

<svg width="83" height="16" viewBox="0 0 83 16" fill="none" xmlns="http://www.w3.org/2000/svg">
<g clip-path="url(#clip0_7_87)">
<path d="M81.6701 3.22916L79.1754 1.79375L76.6447 0.338081C74.9679 -0.626768 72.8775 0.58722 72.8775 2.52604V2.85277C72.8775 3.03155 72.9727 3.19666 73.1272 3.28561L74.3009 3.96094C74.6272 4.14833 75.0328 3.91259 75.0328 3.53613V2.76222C75.0328 2.3791 75.4457 2.13923 75.7778 2.32988L78.0898 3.66033L80.3953 4.98673C80.7281 5.1784 80.7281 5.66003 80.3953 5.85155L78.0898 7.17802L75.7778 8.50847C75.4457 8.69912 75.0328 8.45925 75.0328 8.07606V7.69164C75.0328 5.75282 72.9424 4.53883 71.2654 5.50368L68.7352 6.95942L66.2404 8.39476C64.5555 9.36416 64.5555 11.8012 66.2404 12.7707L68.7352 14.206L71.2654 15.6617C72.9424 16.6266 75.0328 15.4125 75.0328 13.4738V13.1462C75.0328 12.9675 74.9376 12.8024 74.7831 12.7133L73.6094 12.038C73.2831 11.8506 72.8775 12.0864 72.8775 12.4629V13.2375C72.8775 13.6207 72.4646 13.8606 72.1329 13.6699L69.8204 12.3394L67.5148 11.013C67.1819 10.8214 67.1819 10.3398 67.5148 10.1482L69.8204 8.82174L72.1329 7.49129C72.4646 7.30063 72.8775 7.54051 72.8775 7.92369V8.30811C72.8775 10.2469 74.9679 11.4609 76.6447 10.4961L79.1754 9.04039L81.6701 7.605C83.3548 6.63566 83.3548 4.19849 81.6701 3.22916Z" fill="#100F0D"/>
<path d="M65.2867 3.70823L59.4349 15.8187H57.0069L59.1932 11.2932L55.7557 3.70823H58.2463L60.4548 8.78762L62.8676 3.70823H65.2867Z" fill="#100F0D"/>
<path d="M6.84369 12.3081V11.1902C6.20896 11.9642 5.26556 12.4458 4.1337 12.4458C1.78368 12.4458 0 10.5538 0 8.00821C0 5.47998 1.85237 3.55354 4.18504 3.55354C5.28276 3.55354 6.20896 4.03532 6.84369 4.792V3.70837H8.95338V12.3081H6.84369ZM6.82649 8.00821C6.82649 6.56361 5.78026 5.54875 4.49382 5.54875C3.20738 5.54875 2.16113 6.5807 2.16113 8.00821C2.16113 9.41863 3.20738 10.4679 4.49382 10.4679C5.78026 10.4679 6.82649 9.4531 6.82649 8.00821Z" fill="#100F0D"/>
<path d="M19.2013 10.3989C18.4636 10.3989 18.258 10.1238 18.258 9.40138V5.5831H19.6128V3.70834H18.258V1.61014H16.0967V3.70834H13.3126V2.85257C13.3126 2.1302 13.5869 1.85479 14.3417 1.85479H14.8164V0.18646H13.7756C11.9918 0.18646 11.1513 0.771378 11.1513 2.56008V3.70834H9.95056V5.5831H11.1513V12.3081H13.3126V5.5831H16.0967V9.79697C16.0967 11.5514 16.7656 12.3081 18.5151 12.3081H19.63V10.3989H19.2013Z" fill="#100F0D"/>
<path d="M22.6488 8.57597C22.8032 9.8486 23.7122 10.571 24.8615 10.571C25.7705 10.571 26.4738 10.1409 26.8854 9.45301H29.098C28.5836 11.2763 26.954 12.4458 24.81 12.4458C22.2201 12.4458 20.4019 10.6226 20.4019 8.02558C20.4019 5.42838 22.323 3.55347 24.8615 3.55347C27.4172 3.55347 29.2697 5.44546 29.2697 8.02558C29.2697 8.21472 29.2524 8.40399 29.2181 8.57597H22.6488ZM26.954 7.23423C26.7997 6.11637 25.8905 5.44546 24.8271 5.44546C23.7638 5.44546 22.8889 6.09907 22.666 7.23423H26.954Z" fill="#100F0D"/>
<path d="M36.2219 15.8187V3.70837H38.3317V4.82624C38.9663 4.03511 39.9097 3.55348 41.0417 3.55348C43.3573 3.55348 45.1754 5.46269 45.1754 7.99106C45.1754 10.5193 43.323 12.4458 40.9903 12.4458C39.9097 12.4458 39.0178 12.0157 38.4003 11.2934V15.8187H36.2219ZM43.0142 8.00821C43.0142 6.61501 41.9678 5.54861 40.6816 5.54861C39.3951 5.54861 38.3488 6.5807 38.3488 8.00821C38.3488 9.41856 39.3951 10.4678 40.6816 10.4678C41.9678 10.4678 43.0142 9.40143 43.0142 8.00821Z" fill="#100F0D"/>
<path d="M52.7947 12.3081V11.1902C52.16 11.9642 51.2166 12.4458 50.0846 12.4458C47.7347 12.4458 45.9509 10.5538 45.9509 8.00821C45.9509 5.47998 47.8033 3.55354 50.136 3.55354C51.2337 3.55354 52.16 4.03532 52.7947 4.792V3.70837H54.9044V12.3081H52.7947ZM52.7774 8.00821C52.7774 6.56361 51.7313 5.54875 50.4448 5.54875C49.1585 5.54875 48.1121 6.5807 48.1121 8.00821C48.1121 9.41863 49.1585 10.4679 50.4448 10.4679C51.7313 10.4679 52.7774 9.4531 52.7774 8.00821Z" fill="#100F0D"/>
<path d="M32.4199 4.55112C32.4199 4.55112 32.9567 3.55348 34.2724 3.55348C34.8348 3.55348 35.1988 3.74768 35.1988 3.74768V5.94121C35.1988 5.94121 34.405 5.44952 33.6762 5.54875C32.9475 5.64777 32.4863 6.31875 32.4885 7.21694V12.308H30.3103V3.70823H32.4199V4.55112Z" fill="#100F0D"/>
</g>
<defs>
<clipPath id="clip0_7_87">
<rect width="82.9333" height="16" fill="white"/>
</clipPath>
</defs>
</svg>
